!!!COM: Music21
!!!OTL: strathspey_Willy-Will-You-Eer-Return
!!!OMV: strathspey_Willy-Will-You-Eer-Return
**kern
*clefG2
*k[b-]
*F:
*M4/4
=1
8ff
=||
8.ccL
16aJk
16fKL
8.ddJ
16fKL
8.fJ
8.ccL
16aJk
=
16ccKL
8.aJ
8.fL
16gJk
16aKL
8.ccJ
4dd
=
8.ccL
16aJk
16fKL
8.ddJ
16ccKL
8.fJ
8.ccL
16b-Jk
=
8.aL
16gJk
8.fL
16gJk
16aKL
8.ccJ
4dd
!!linebreak:original
=||
8.ccL
16aJk
16fKL
8.ddJ
16fKL
8.fJ
8.ccL
16aJk
=
16ccKL
8.aJ
8.fL
16gJk
16aKL
8.ccJ
4dd
=
8.ccL
16aJk
16fKL
8.ddJ
16ccKL
8.fJ
8.ccL
16b-Jk
=
8.aL
16gJk
8.fL
16gJk
16aKL
8.ccJ
4dd
!!linebreak:original
=||
16ccKL
8.aJ
8.ffL
16ddJk
8.ccL
16aJk
16b-KL
8.gJ
=
16aKL
8.ffJ
16eeKL
8.ddJ
8.cc#XL
16aJk
4dd
=
16ccKL
8.aJ
8.ffL
16ddJk
16ccKL
8.aJ
16b-KL
8.gJ
=
8.aL
16gJk
8.fL
16gJk
16aKL
8.ccJ
4dd
!!linebreak:original
=
16ccKL
8.aJ
8.ffL
16ddJk
8.ccL
16aJk
16b-KL
8.gJ
=
8.aL
16gJk
8.fL
16gJk
16aKL
8.ccJ
4dd
=
16ccKL
8.aJ
8.ffL
16ddJk
8.ccL
16aJk
16b-KL
8.gJ
=
16aKL
8.ffJ
16eeKL
8.aaJ
8.cc#XL
16aJk
4dd
!!linebreak:original
=
16ccKL
8.aJ
8.aaL
16ggJk
8.ffL
16ddJk
8.ccL
16b-Jk
=
8.aL
16gJk
8.fL
16gJk
8aL
8ccJ
4dd
=||
*-
